X:082 
T:Jackson's Morning Breeze
S:Paddy O'Brien (Offaly)
F:file ID: cre.5/082jack_mb
B:CRE5.027 (Leoithne Mhaidine Mhic Shiacais)
N:This tune is a/k/a/ "Jackson's Morning Brush"
M:6/8
Q:160
R:jig
K:D
A|DFA def|edB gab|afd Adf|edBAF|
DFA def|edB gab|afd Adf|edc d2:|
|:e|fdf afa|bgb a2g|fdf afa|gbg a2f|
gbg faf|edB gab|afd Adf|edc d2:|

%%%

